X:3198
T:Schottis från Idre
R:Schottis
O:Idre, Dalarna
Z:Karl Ljungkvist, 2013-03-02
M:2/4
L:1/16
K:Dm
|: a2ge f2ed | ^c2A2 A4 | A^B^cd efec | d^cdf a4 | 
a2ge f2ed | ^c2A2 A4 | A^B^cd efec | d>ed^c d4 :|
|: f2fg f2ed | e2a2 a2ge | f2fg f2ed | ^cdec A3e | 
f2fg f2ed | e2a2 a2ge | f2df eA^ce | d>ed^c d4 :|
|: d2dd d^ced | ^c2A2 A2ag | f2ff faaf | fee^c A4 |
 d2dd d^ced | ^c2A2 A2ag | f2df eA^ce | d>ed^c d4 :|
(:musicend:)
(:music:)
